src/img/roundIcon2.svg

<svg width="105" height="105" viewBox="0 0 105 105" fill="none" xmlns="http://www.w3.org/2000/svg">
<path opacity="0.2" d="M52.5 105C81.4949 105 105 81.4949 105 52.5C105 23.5051 81.4949 0 52.5 0C23.5051 0 0 23.5051 0 52.5C0 81.4949 23.5051 105 52.5 105Z" fill="url(#paint0_linear_0_205)"/>
<path d="M52.75 79C67.2475 79 79 67.2475 79 52.75C79 38.2525 67.2475 26.5 52.75 26.5C38.2525 26.5 26.5 38.2525 26.5 52.75C26.5 67.2475 38.2525 79 52.75 79Z" fill="#00CCCC" stroke="#173753" stroke-width="3.402" stroke-linecap="round" stroke-linejoin="round"/>
<path d="M52.875 71.25C63.0232 71.25 71.25 63.0232 71.25 52.875C71.25 42.7268 63.0232 34.5 52.875 34.5C42.7268 34.5 34.5 42.7268 34.5 52.875C34.5 63.0232 42.7268 71.25 52.875 71.25Z" fill="#E5F9F9"/>
<path d="M47.1 53.925C49.1 53.925 50.575 52.6 50.575 50.625V47.475C50.575 45.5 49.1 44.175 47.1 44.175C45.1 44.175 43.625 45.5 43.625 47.475V50.625C43.625 52.6 45.1 53.925 47.1 53.925ZM48.05 61.35L58.55 46.425L56.6 45.0251L46.125 59.9501L48.05 61.35ZM47.1 51.875C46.375 51.875 45.85 51.3001 45.85 50.5751V47.5251C45.85 46.8001 46.375 46.25 47.1 46.25C47.825 46.25 48.375 46.8251 48.375 47.5251V50.5751C48.375 51.3001 47.825 51.875 47.1 51.875ZM57.55 62.3251C59.55 62.3251 61.025 61.0001 61.025 59.0251V55.875C61.025 53.9 59.55 52.5751 57.55 52.5751C55.55 52.5751 54.1 53.9 54.1 55.875V59.0251C54.1 61.0001 55.55 62.3251 57.55 62.3251ZM57.55 60.2751C56.825 60.2751 56.325 59.7 56.325 58.975V55.925C56.325 55.2 56.825 54.6501 57.55 54.6501C58.275 54.6501 58.825 55.225 58.825 55.925V58.975C58.825 59.7 58.275 60.2751 57.55 60.2751Z" fill="#173753"/>
<defs>
<linearGradient id="paint0_linear_0_205" x1="42.7308" y1="6.3861" x2="77.7095" y2="105" gradientUnits="userSpaceOnUse">
<stop stop-color="#00C9C9" stop-opacity="0.147"/>
<stop offset="1" stop-color="#00C9C9" stop-opacity="0.699"/>
</linearGradient>
</defs>
</svg>

<svg xmlns="http://www.w3.org/2000/svg" width="105" height="105" fill="none"><path fill="url(#a)" d="M52.5 105c28.995 0 52.5-23.505 52.5-52.5S81.495 0 52.5 0 0 23.505 0 52.5 23.505 105 52.5 105Z" opacity=".2"/><path fill="#0CC" stroke="#173753" stroke-linecap="round" stroke-linejoin="round" stroke-width="3.402" d="M52.75 79C67.248 79 79 67.248 79 52.75S67.248 26.5 52.75 26.5 26.5 38.252 26.5 52.75 38.252 79 52.75 79Z"/><path fill="#E5F9F9" d="M52.875 71.25c10.148 0 18.375-8.227 18.375-18.375S63.023 34.5 52.875 34.5 34.5 42.727 34.5 52.875 42.727 71.25 52.875 71.25Z"/><path fill="#173753" d="M47.1 53.925c2 0 3.475-1.325 3.475-3.3v-3.15c0-1.975-1.475-3.3-3.475-3.3s-3.475 1.325-3.475 3.3v3.15c0 1.975 1.475 3.3 3.475 3.3Zm.95 7.425 10.5-14.925-1.95-1.4L46.125 59.95l1.925 1.4Zm-.95-9.475c-.725 0-1.25-.575-1.25-1.3v-3.05c0-.725.525-1.275 1.25-1.275s1.275.575 1.275 1.275v3.05c0 .725-.55 1.3-1.275 1.3Zm10.45 10.45c2 0 3.475-1.325 3.475-3.3v-3.15c0-1.975-1.475-3.3-3.475-3.3s-3.45 1.325-3.45 3.3v3.15c0 1.975 1.45 3.3 3.45 3.3Zm0-2.05c-.725 0-1.225-.575-1.225-1.3v-3.05c0-.725.5-1.275 1.225-1.275.725 0 1.275.575 1.275 1.275v3.05c0 .725-.55 1.3-1.275 1.3Z"/><defs><linearGradient id="a" x1="42.731" x2="77.71" y1="6.386" y2="105" gradientUnits="userSpaceOnUse"><stop stop-color="#00C9C9" stop-opacity=".147"/><stop offset="1" stop-color="#00C9C9" stop-opacity=".699"/></linearGradient></defs></svg>
